X: 71
T:How Blest Are Shepherds. HA.070
M:3/4
L:1/4
Q:70
C:Purcell
S:Henry Atkinson's original MS,Hartburn,N'umberland,1694.
R:Air
O:England
A:Hartburn,Northumberland
N:cf Apollo's Banquet, 1691.CGP.
H:1/4
Z:vmp.Chris Partington.Jan.2004
K:C
cge|ade|f(g/f/) (e/d/)|e2(d/c/)|gc'g|ecG|ce(d/c/)|g3:|!
|:dBe|d>ef|g(a/g/) (f/d/)|e2d|eae|d>ef|(B/c/) (d/c/) (B/A/)|A3|!
cde|f(e/d/)g|efg|a2a|gab|c'ea|dg(c/d/)|d2c|]
